X:1
T:Marche funèbre in C Minor
T:Op. 72, No. 2
T:F. Chopin (1810 - 1849) 
%%score { ( 1 3 4 ) | ( 2 5 6 ) }
L:1/8
Q:1/4=84
M:4/4
K:Eb
V:1 treble nm="Piano" snm="Pno."
V:3 treble 
V:4 treble 
V:2 bass 
V:5 bass 
V:6 bass 
V:1
"^Tempo di Marcia"!p! (C4 E2) E>E | (C2 E) z z4 |!<(! [CEG]2 [CEG]>[CEG] [CEG]2 [CEG]2!<)! | %3
!mp!!>(! ([GB][FA][EG][DF]!>)!!p! [EG]2) [CE]2 | [B,D]2 [B,D]>[B,D]"_cresc." [G,B,D]2 [G,B,D]2 | %5
 [G,G]>_A,[K:bass]!<(! F,>D E,>F, D,>G,!<)! |!mf! [CEG]2 [CEG]>[CEG] [B,EG]2 [B,EG]2 | %7
 (BAG>F [B,EG]2) [G,B,E]2 |!<(! [CE]2 [CEc]>[CEc] [CEc]2!<)! (!>!d>e | %9
!f! [Ec]2) [Cc]>[Cc] [Cc]2!>(! ([Gg]>[Ff]!>)! |!p! [Ff]2) [Ff]>[Ff] [Ff]2 [Ff]2 | %11
 ([Ff][Ee]{/[Ee]}[Dd]>[Cc] [Dd]2)!>(! ([Gg]>[Ff]!>)! | [Ff]2)!<(! [Ff]>[Ff] [Ff]2 [Ff]2!<)! | %13
 ([Ff][Ee][Dd][Ee]!<(! [Ff]3 [^F^f]!<)! |!mf! [Gg]2) [Bg]>[Bg] [ce]2 !>![ca]2 | %15
 ([Bg]>[Af][Ge]>[Ad] [Ge]2) [EB]2 |!<(! [CEc]2 [CEc]>[CEc] [CEc]2!<)! (!>!d>e | %17
!f! [Ec]2) [Cc]>[Cc] [Cc]2!>(! [Gg]>[Ff]!>)! |!p! [Ff]2 [Ff]>[Ff] [Ff]2 [Ff]2 | %19
 ([Ff][Ee]{/[Ee]}[Dd]>[Cc] [Dd]2)!>(! ([Gg]>[Ff]!>)! | [Ff]2)!<(! [Ff]>[Ff] [Ff]2 [Ff]2!<)! | %21
 ([Ff][Ee][Dd][Ee]!<(! [Ff]3 [^F^f]!<)! |!mf! [Gg]2) [Bg]>[Bg] [ce]2 !>![ca]2 | %23
 ([Bg]>[Af][Ge]>[Ad] [Ge]2) [EB]2 |!<(! [CEc]2 [CEc]>[CEc] [CEc]2!<)! (!>!d>e | %25
!f! [Ec]2) [Cc]>[Cc]!>(! [Cc]2 z2!>)! ||[K:Ab][Q:1/4=74]"^Trio"!p! (e4 c4 | B2!<(! B>c!<)! d4) | %28
 (B2!<(! B>c!<)!!mf! d>e!>(!=f>e | !>!d4 c4)!>)! | (e4 c4 | B2 B>c d4) | (B2!<(! B>c de=fg!<)! | %33
!f! [ca]2)!>(! z2 z4!>)! |!p! (e4 c4 | B2!<(! B>c!<)! d4) | (B2!<(! B>c!<)!!mf! d>e!>(!=f>e | %37
 !>!d4 c4)!>)! | (e4 c4 | B2 B>c d4) | (B2!<(! B>c de=fg!<)! |!f! [ca]2) [cc']>[cc'] [cc'](ag^f) | %42
 (!>!=f4- f>e=d>e) | (!>!_d4- dc=Bc) | (!>!f4- fef>c) | (!>!d4- dcd>A) | (c4- ccB>A | G4-) G(cB>A | %48
 G4)[K:bass] (DCG,A,) |"_dim."!>(! (B,A,=E,F, _E,D,=B,,C,)!>)! |!p! (e4 c4 | B2!<(! B>c!<)! d4) | %52
 (B2!<(! B>c!<)!!mf! d>e!>(!=f>e | !>!d4 c4)!>)! | (e4 c4 | B2 B>c d4) | (B2!<(! B>c de=fg!<)! | %57
!f! [ca]2)!>(! A,>A, A,2 B,2!>)! ||[K:Eb]!p! (C4 E2) E>E | (C2 E) z z4 | %60
!<(! [CEG]2 [CEG]>[CEG] [CEG]2 [CEG]2!<)! |!mp!!>(! ([GB][FA][EG][DF]!>)!!p! [EG]2) [CE]2 | %62
 [B,D]2 [B,D]>[B,D]"_cresc." [G,B,D]2 [G,B,D]2 | [G,G]>_A,[K:bass]!<(! F,>D E,>F, D,>G,!<)! | %64
!mf! [CEG]2 [CEG]>[CEG] [B,EG]2 [B,EG]2 | (BAG>F [B,EG]2) [G,B,E]2 | %66
!<(! [CE]2 [CEc]>[CEc] [CEc]2!<)! (!>!d>e |!f! [Ec]2) [Cc]>[Cc] [Cc]2!>(! ([Gg]>[Ff]!>)! | %68
!p! [Ff]2) [Ff]>[Ff] [Ff]2 [Ff]2 | ([Ff][Ee]{/[Ee]}[Dd]>[Cc] [Dd]2)!>(! ([Gg]>[Ff]!>)! | %70
 [Ff]2)!<(! [Ff]>[Ff] [Ff]2 [Ff]2!<)! | ([Ff][Ee][Dd][Ee]!<(! [Ff]3 [^F^f]!<)! | %72
!mf! [Gg]2) [Bg]>[Bg] [ce]2 !>![ca]2 | ([Bg]>[Af][Ge]>[Ad] [Ge]2) [EB]2 | %74
!<(! [CEc]2 [CEc]>[CEc] [CEc]2!<)! (!>!d>e |!f! [Ec]2) [Cc]>[Cc] [Cc]2 z2 |] %76
V:2
 (C,4 E,2) E,>E, |!ped! (C,2 E,) z z4!ped-up! | z8 | F,2 C,>C, C,2 C,2 | G,2 D,>C, B,,3 =A,, | %5
 G,,>_A,, F,,>D, E,,>F,, D,,>G,, | [C,,C,]2 C,>D, E,2 E,2 | [A,,E,]2 [E,,E,]4 [E,,E,]2 | %8
 [A,,A,]2 ([E,,E,]>[D,,D,] [C,,C,]2) ([A,,,A,,]>[G,,,G,,] | [C,,C,]2) z2 z4 | %10
 z2 ([A,C]2 [G,=B,]2 [A,C]2 | [G,=B,]2) z2 z4 | z2 ([A,C]2 [G,=B,]2 [A,C]2) | [A,_C]6 [A,B,D]2 | %14
 [E,B,E]2 [E,E]2 [A,E]2 [A,E]2 | ([B,E]>_CB,>F E2) x2 | %16
 [A,,A,]2 ([E,,E,]>[D,,D,] [C,,C,]2) ([A,,,A,,]>[G,,,G,,] | [C,,C,]2) [C,,C,]>[C,,C,] [C,,C,]2 z2 | %18
 z2 ([A,C]2 [G,=B,]2 [A,C]2 | [G,=B,]2) z2 z4 | z2 ([A,C]2 [G,=B,]2 [A,C]2) | [A,_C]6 [A,B,D]2 | %22
 [E,B,E]2 [E,E]2 [A,E]2 [A,E]2 | ([B,E]>_CB,>F E2) x2 | %24
 [A,,A,]2 ([E,,E,]>[D,,D,] [C,,C,]2) ([A,,,A,,]>[G,,,G,,] | %25
 [C,,C,]2) [C,,C,]>[C,,C,] ([C,,C,]2 [_B,,,_B,,]2 || %26
[K:Ab]!ped! [A,,,A,,]2) [E,A,C]2 A,,2 [E,A,C]2!ped-up! |!ped! D,,2 [A,B,D]2 D,2 [A,B,D]2!ped-up! | %28
!ped! E,,2 [E,B,D]2 E,,2 [E,B,D]2!ped-up! | %29
!ped! =E,,2 !arpeggio![=E,B,D]2!ped-up! [F,A,C]2 (_E,>D, | C,3 B,, A,,>G,,F,,>E,, | %31
!ped! D,,2) [B,D]2!ped-up!!ped! D,2 [B,D]2!ped-up! |!ped! E,,2 [E,B,E]2 E,,2!ped-up! [E,B,E]2 | %33
 [A,E]2 ([A,,A,]2 !>![D,,D,]2 [C,,C,]2 |!ped! [A,,,A,,]2) [E,A,C]2 A,,2 [E,A,C]2!ped-up! | %35
!ped! D,,2 [A,B,D]2 D,2 [A,B,D]2!ped-up! |!ped! E,,2 [E,B,D]2 E,,2 [E,B,D]2!ped-up! | %37
!ped! =E,,2 !arpeggio![=E,B,D]2!ped-up! [F,A,C]2 (_E,>D, | C,3 B,, A,,>G,,F,,>E,, | %39
!ped! D,,2) [B,D]2!ped-up!!ped! D,2 [B,D]2!ped-up! |!ped! E,,2 [E,B,E]2 E,,2!ped-up! [E,B,E]2 | %41
 [A,E]2 z2 z (AG^F) | (!>!=F4- F>E=D>E) | (!>!_D4- DC=B,C) | (!>!F4- FEF>C) | (!>!D4- DCD>A,) | %46
 (C4- CCB,>A, | G,4-) G,CB,>A, | G,4 (D,C,G,,A,,) | (B,,A,,=E,,F,, _E,,D,,=B,,,C,,) | %50
!ped! A,,,2 [E,A,C]2 A,,2 [E,A,C]2!ped-up! |!ped! D,,2 [A,B,D]2 D,2 [A,B,D]2!ped-up! | %52
!ped! E,,2 [E,B,D]2 E,,2 [E,B,D]2!ped-up! | %53
!ped! =E,,2 !arpeggio![=E,B,D]2!ped-up! [F,A,C]2 (_E,>D, | C,3 B,, A,,>G,,F,,>E,, | %55
!ped! D,,2) [B,D]2!ped-up!!ped! D,2 [B,D]2!ped-up! |!ped! E,,2 [E,B,E]2 E,,2!ped-up! [E,B,E]2 | %57
 [A,E]2 A,,>A,, A,,2 B,,2 ||[K:Eb] (C,4 E,2) E,>E, |!ped! (C,2 E,) z z4!ped-up! | z8 | %61
 F,2 C,>C, C,2 C,2 | G,2 D,>C, B,,3 =A,, | G,,>_A,, F,,>D, E,,>F,, D,,>G,, | %64
 [C,,C,]2 C,>D, E,2 E,2 | [A,,E,]2 [E,,E,]4 [E,,E,]2 | %66
 [A,,A,]2 ([E,,E,]>[D,,D,] [C,,C,]2) ([A,,,A,,]>[G,,,G,,] | [C,,C,]2) z2 z4 | %68
 z2 ([A,C]2 [G,=B,]2 [A,C]2 | [G,=B,]2) z2 z4 | z2 ([A,C]2 [G,=B,]2 [A,C]2) | [A,_C]6 [A,B,D]2 | %72
 [E,B,E]2 [E,E]2 [A,E]2 [A,E]2 | ([B,E]>_CB,>F E2) x2 | %74
 [A,,A,]2 ([E,,E,]>[D,,D,] [C,,C,]2) ([A,,,A,,]>[G,,,G,,] | %75
 [C,,C,]2) [C,,C,]>[C,,C,] [C,,C,]2 z2 |] %76
V:3
 x8 | x8 | x8 | C2 C2 C2 x2 | x8 | x2[K:bass] x6 | x8 | [CE]2 E2 x4 | x6 !arpeggio![=B,F=B]2 | x8 | %10
 x8 | x8 | x8 | x8 | x8 | x8 | x6 !arpeggio![=B,F=B]2 | x8 | x8 | x8 | x8 | x8 | x8 | x8 | %24
 x6 !arpeggio![=B,F=B]2 | x8 ||[K:Ab] z2 [EA]2 z2 [EA]2 | z2 [_FA]2 z2 [FA]2 | z2 G2 z2 G2 | %29
 z2 [GB]2 A2!p! [EA]2 | z2 [EA]2 z2 [EA]2 | z2 [_FA]2 z2 [FA]2 | x2 A4 [Gd]2 | x8 | %34
 z2 [EA]2 z2 [EA]2 | z2 [_FA]2 z2 [FA]2 | z2 G2 z2 G2 | z2 [GB]2 A2!p! [EA]2 | z2 [EA]2 z2 [EA]2 | %39
 z2 [_FA]2 z2 [FA]2 | x2 A4 [Gd]2 | x8 | z2 (_B2 c4) | z2 (G2 A4) | z2 (_B2 c2) z2 | %45
 z2 (G2 A2) z2 | z2 (=E2 !>!F4-) | F2 =E2 !>!F4- | (F2 =E2)[K:bass] x4 | x8 | z2 [EA]2 z2 [EA]2 | %51
 z2 [_FA]2 z2 [FA]2 | z2 G2 z2 G2 | z2 [GB]2 A2!p! [EA]2 | z2 [EA]2 z2 [EA]2 | z2 [_FA]2 z2 [FA]2 | %56
 x2 A4 [Gd]2 | x8 ||[K:Eb] x8 | x8 | x8 | C2 C2 C2 x2 | x8 | x2[K:bass] x6 | x8 | [CE]2 E2 x4 | %66
 x6 !arpeggio![=B,F=B]2 | x8 | x8 | x8 | x8 | x8 | x8 | x8 | x6 !arpeggio![=B,F=B]2 | x8 |] %76
V:4
 x8 | x8 | x8 | x8 | x8 | x2[K:bass] x6 | x8 | x2 B,>A, x4 | x8 | x8 | x8 | x8 | x8 | x8 | x8 | %15
 x8 | x8 | x8 | x8 | x8 | x8 | x8 | x8 | x8 | x8 | x8 ||[K:Ab] x8 | x8 | x8 | x8 | x8 | x8 | x8 | %33
 x8 | x8 | x8 | x8 | x8 | x8 | x8 | x8 | x8 | x8 | x8 | x8 | x8 | x8 | x8 | x4[K:bass] x4 | x8 | %50
 x8 | x8 | x8 | x8 | x8 | x8 | x8 | x8 ||[K:Eb] x8 | x8 | x8 | x8 | x8 | x2[K:bass] x6 | x8 | %65
 x2 B,>A, x4 | x8 | x8 | x8 | x8 | x8 | x8 | x8 | x8 | x8 | x8 |] %76
V:5
 x8 | x8 | x8 | x8 | x8 | x8 | x8 | x8 | x8 | x8 | x8 | x8 | x8 | x8 | x8 | E,6 G,2 | x8 | x8 | %18
 x8 | x8 | x8 | x8 | x8 | E,6 G,2 | x8 | x8 ||[K:Ab] x8 | x8 | x8 | x8 | x8 | x8 | x8 | x8 | x8 | %35
 x8 | x8 | x8 | x8 | x8 | x8 | x8 | z2 ([G,_D]2 [A,C]4) | z2 ([=E,B,]2 [F,A,]4) | %44
 z2 ([G,_D]2 [A,C]2) z2 | z2 ([=E,B,]2 [F,A,]2) z2 | z2 ([C,G,]2 D,4-) | D,2 (C,2 D,4-) | %48
 (D,2 C,2) x4 | x8 | x8 | x8 | x8 | x8 | x8 | x8 | x8 | x8 ||[K:Eb] x8 | x8 | x8 | x8 | x8 | x8 | %64
 x8 | x8 | x8 | x8 | x8 | x8 | x8 | x8 | x8 | E,6 G,2 | x8 | x8 |] %76
V:6
 x8 | x8 | x8 | x8 | x8 | x8 | x8 | x8 | x8 | x8 | x8 | x8 | x8 | x8 | x8 | x8 | x8 | x8 | x8 | %19
 x8 | x8 | x8 | x8 | x8 | x8 | x8 ||[K:Ab] x8 | x8 | x8 | x8 | x8 | x8 | x8 | x8 | x8 | x8 | x8 | %37
 x8 | x8 | x8 | x8 | x8 | x8 | x8 | x8 | x8 | x4 F,2 z2 | x4 F,2 z2 | x8 | x8 | x8 | x8 | x8 | x8 | %54
 x8 | x8 | x8 | x8 ||[K:Eb] x8 | x8 | x8 | x8 | x8 | x8 | x8 | x8 | x8 | x8 | x8 | x8 | x8 | x8 | %72
 x8 | x8 | x8 | x8 |] %76

